public/logo.svg

<svg width="472" height="510" viewBox="0 0 472 510" fill="none" xmlns="http://www.w3.org/2000/svg">
<path d="M379.51 143.322C379.59 144.022 379.59 144.722 379.51 145.392C379.09 148.712 376.19 151.192 372.87 151.592L261.43 165.892C260.1 166.592 259 167.692 258.28 169.002L243.66 195.722C240.7 201.182 232.85 201.182 229.84 195.722L215.24 169.002C214.52 167.692 213.42 166.592 212.11 165.892L98.9198 151.592C95.5998 151.192 92.7198 148.712 92.2998 145.412C92.1898 144.712 92.1898 144.012 92.2998 143.312C92.7198 139.992 95.5998 137.532 98.9198 137.132L212.11 122.832C213.42 122.112 214.52 121.032 215.24 119.702L229.84 93.0022C232.84 87.5422 240.69 87.5422 243.66 93.0022L258.28 119.702C259 121.032 260.1 122.112 261.43 122.832L372.87 137.132C376.19 137.512 379.09 139.992 379.51 143.312V143.322Z" fill="url(#paint0_linear_243_2)"/>
<path d="M415.14 85.9625L292.55 15.1725C257.49 -5.0575 214.31 -5.0575 179.25 15.1725L56.66 85.9625C21.6 106.193 0 143.603 0 184.073V325.643C0 366.123 21.6 403.523 56.66 423.753L179.25 494.522C214.31 514.772 257.49 514.772 292.55 494.522L415.14 423.753C450.2 403.523 471.78 366.123 471.78 325.643V184.073C471.78 143.593 450.2 106.193 415.14 85.9625ZM400.86 167.503L380.51 179.902L278.04 242.323C255.38 256.143 218.44 256.473 195.52 243.083L91.93 182.512L71.39 170.493C48.48 157.083 48.29 135.033 70.95 121.233L193.75 46.3925C216.41 32.5925 253.35 32.2625 276.27 45.6525L400.42 118.243C423.33 131.633 423.52 153.683 400.86 167.503Z" fill="url(#paint1_linear_243_2)"/>
<path d="M379.51 145.403C379.09 148.723 376.19 151.203 372.87 151.603L261.43 165.903C260.1 166.603 259 167.703 258.28 169.013L243.66 195.733C240.7 201.193 232.85 201.193 229.84 195.733L215.24 169.013C214.52 167.703 213.42 166.603 212.11 165.903L98.9198 151.603C95.5998 151.203 92.7198 148.723 92.2998 145.423C92.1898 144.723 92.1898 144.023 92.2998 143.323C92.7198 140.003 95.5998 137.543 98.9198 137.143L212.11 122.843C213.42 122.123 214.52 121.043 215.24 119.713L229.84 93.013C232.84 87.553 240.69 87.553 243.66 93.013L258.28 119.713C259 121.043 260.1 122.123 261.43 122.843L372.87 137.143C376.19 137.523 379.09 140.003 379.51 143.323C379.59 144.023 379.59 144.723 379.51 145.393V145.403Z" fill="url(#paint2_linear_243_2)"/>
<path d="M379.51 145.403C379.09 148.723 376.19 151.203 372.87 151.603L261.43 165.903C260.1 166.603 259 167.703 258.28 169.013L243.66 195.733C240.7 201.193 232.85 201.193 229.84 195.733L215.24 169.013C214.52 167.703 213.42 166.603 212.11 165.903L98.9198 151.603C95.5998 151.203 92.7198 148.723 92.2998 145.423C92.1898 144.723 92.1898 144.023 92.2998 143.323C92.7198 140.003 95.5998 137.543 98.9198 137.143L212.11 122.843C213.42 122.123 214.52 121.043 215.24 119.713L229.84 93.013C232.84 87.553 240.69 87.553 243.66 93.013L258.28 119.713C259 121.043 260.1 122.123 261.43 122.843L372.87 137.143C376.19 137.523 379.09 140.003 379.51 143.323C379.59 144.023 379.59 144.723 379.51 145.393V145.403Z" fill="url(#paint3_linear_243_2)"/>
<defs>
<linearGradient id="paint0_linear_243_2" x1="92.2098" y1="144.372" x2="379.57" y2="144.372" gradientUnits="userSpaceOnUse">
<stop stop-color="#E77630"/>
<stop offset="1" stop-color="#F1AD83"/>
</linearGradient>
<linearGradient id="paint1_linear_243_2" x1="0" y1="254.863" x2="471.78" y2="254.863" gradientUnits="userSpaceOnUse">
<stop stop-color="#FF3F02"/>
<stop offset="1" stop-color="#FDC103"/>
</linearGradient>
<linearGradient id="paint2_linear_243_2" x1="92.2098" y1="144.373" x2="379.57" y2="144.373" gradientUnits="userSpaceOnUse">
<stop stop-color="#E77630"/>
<stop offset="1" stop-color="#F1AD83"/>
</linearGradient>
<linearGradient id="paint3_linear_243_2" x1="92.2098" y1="144.373" x2="379.57" y2="144.373" gradientUnits="userSpaceOnUse">
<stop stop-color="#E77630"/>
<stop offset="1" stop-color="#F1AD83"/>
</linearGradient>
</defs>
</svg>

<?xml version="1.0" encoding="UTF-8"?>
<svg id="Layer_2" data-name="Layer 2" xmlns="http://www.w3.org/2000/svg" xmlns:xlink="http://www.w3.org/1999/xlink" viewBox="0 0 471.78 509.71">
  <defs>
    <style>
      .cls-1 {
        fill: url(#New_Gradient_Swatch_1);
      }

      .cls-2 {
        fill: url(#New_Gradient_Swatch_1-2);
      }
    </style>
    <linearGradient id="New_Gradient_Swatch_1" data-name="New Gradient Swatch 1" x1="92.21" y1="144.37" x2="379.57" y2="144.37" gradientUnits="userSpaceOnUse">
      <stop offset="0" stop-color="#e77630"/>
      <stop offset="1" stop-color="#f1ad83"/>
    </linearGradient>
    <linearGradient id="New_Gradient_Swatch_1-2" data-name="New Gradient Swatch 1" x1="0" y1="254.86" x2="471.78" y2="254.86" xlink:href="#New_Gradient_Swatch_1"/>
  </defs>
  <g id="Layer_1-2" data-name="Layer 1">
    <g>
      <path class="cls-1" d="m379.51,143.32c.08.7.08,1.4,0,2.07-.42,3.32-3.32,5.8-6.64,6.2l-111.44,14.3c-1.33.7-2.43,1.8-3.15,3.11l-14.62,26.72c-2.96,5.46-10.81,5.46-13.82,0l-14.6-26.72c-.72-1.31-1.82-2.41-3.13-3.11l-113.19-14.3c-3.32-.4-6.2-2.88-6.62-6.18-.11-.7-.11-1.4,0-2.1.42-3.32,3.3-5.78,6.62-6.18l113.19-14.3c1.31-.72,2.41-1.8,3.13-3.13l14.6-26.7c3-5.46,10.85-5.46,13.82,0l14.62,26.7c.72,1.33,1.82,2.41,3.15,3.13l111.44,14.3c3.32.38,6.22,2.86,6.64,6.18Z"/>
      <path class="cls-2" d="m415.14,85.96L292.55,15.17c-35.06-20.23-78.24-20.23-113.3,0L56.66,85.96C21.6,106.19,0,143.6,0,184.07v141.57c0,40.48,21.6,77.88,56.66,98.11l122.59,70.77c35.06,20.25,78.24,20.25,113.3,0l122.59-70.77c35.06-20.23,56.64-57.63,56.64-98.11v-141.57c0-40.48-21.58-77.88-56.64-98.11Zm-14.28,81.54l-20.35,12.4-102.47,62.42c-22.66,13.82-59.6,14.15-82.52.76l-103.59-60.57-20.54-12.02c-22.91-13.41-23.1-35.46-.44-49.26l122.8-74.84c22.66-13.8,59.6-14.13,82.52-.74l124.15,72.59c22.91,13.39,23.1,35.44.44,49.26Z"/>
      <path class="cls-1" d="m379.51,145.4c-.42,3.32-3.32,5.8-6.64,6.2l-111.44,14.3c-1.33.7-2.43,1.8-3.15,3.11l-14.62,26.72c-2.96,5.46-10.81,5.46-13.82,0l-14.6-26.72c-.72-1.31-1.82-2.41-3.13-3.11l-113.19-14.3c-3.32-.4-6.2-2.88-6.62-6.18-.11-.7-.11-1.4,0-2.1.42-3.32,3.3-5.78,6.62-6.18l113.19-14.3c1.31-.72,2.41-1.8,3.13-3.13l14.6-26.7c3-5.46,10.85-5.46,13.82,0l14.62,26.7c.72,1.33,1.82,2.41,3.15,3.13l111.44,14.3c3.32.38,6.22,2.86,6.64,6.18.08.7.08,1.4,0,2.07Z"/>
      <path class="cls-1" d="m379.51,145.4c-.42,3.32-3.32,5.8-6.64,6.2l-111.44,14.3c-1.33.7-2.43,1.8-3.15,3.11l-14.62,26.72c-2.96,5.46-10.81,5.46-13.82,0l-14.6-26.72c-.72-1.31-1.82-2.41-3.13-3.11l-113.19-14.3c-3.32-.4-6.2-2.88-6.62-6.18-.11-.7-.11-1.4,0-2.1.42-3.32,3.3-5.78,6.62-6.18l113.19-14.3c1.31-.72,2.41-1.8,3.13-3.13l14.6-26.7c3-5.46,10.85-5.46,13.82,0l14.62,26.7c.72,1.33,1.82,2.41,3.15,3.13l111.44,14.3c3.32.38,6.22,2.86,6.64,6.18.08.7.08,1.4,0,2.07Z"/>
    </g>
  </g>
</svg>
